art/auto_route_logo.svg

<svg xmlns="http://www.w3.org/2000/svg" viewBox="0 0 710.025 424.146">
    <title>Asset 2</title>
    <g id="f98528ed-5b03-492f-9f5b-398e7e247038">
        <g id="be111822-b9d4-4671-b640-52b7ef3429e9">
            <polygon points="60.461 406.431 67.252 422.834 60.472 406.431 60.461 406.431"
                style="fill:#204294" />
            <polygon points="24.933 406.431 22.227 412.976 24.953 406.431 24.933 406.431"
                style="fill:#204294" />
            <polygon points="54.895 392.98 42.757 363.674 54.891 392.98 54.895 392.98"
                style="fill:#204294" />
            <polygon
                points="51.615 346.286 34.118 346.286 0 422.834 18.123 422.834 22.227 412.976 24.933 406.431 24.953 406.431 42.757 363.674 54.895 392.98 54.891 392.98 60.461 406.431 60.472 406.431 67.252 422.834 85.842 422.834 51.615 346.286"
                style="fill:#204294" />
            <polygon points="22.227 412.976 18.123 422.834 18.153 422.834 22.227 412.976"
                style="fill:#204294" />
            <path
                d="M100.658,415.069q-9.13-9.075-9.131-25.917V346.286h17.716V388.5q0,20.559,17.059,20.558,8.308,0,12.685-4.975t4.374-15.583V346.286h17.5v42.866q0,16.844-9.131,25.917t-25.533,9.077Q109.789,424.146,100.658,415.069Z"
                style="fill:#204294" />
            <path d="M192.9,360.721H168.4V346.286h66.706v14.435h-24.5v62.113H192.9Z"
                style="fill:#204294" />
            <path
                d="M259.111,419.006a38.133,38.133,0,0,1-14.981-14.161,40.715,40.715,0,0,1,0-40.57,38.14,38.14,0,0,1,14.981-14.161,47.379,47.379,0,0,1,42.921,0,39.041,39.041,0,0,1,0,68.892,47.371,47.371,0,0,1-42.921,0Zm33.736-13.067a22.373,22.373,0,0,0,8.584-8.695,27.376,27.376,0,0,0,0-25.369,22.374,22.374,0,0,0-8.584-8.693,25.62,25.62,0,0,0-24.5,0,22.356,22.356,0,0,0-8.585,8.693,27.376,27.376,0,0,0,0,25.369,22.355,22.355,0,0,0,8.585,8.695,25.628,25.628,0,0,0,24.5,0Z"
                style="fill:#204294" />
            <path
                d="M393.233,422.834l-18.262-25.59a55.482,55.482,0,0,1-7.437.548h-21.87v25.042h-5.577V346.286h27.447q14.436,0,22.637,6.836t8.2,18.972q0,9.076-4.647,15.254a24.614,24.614,0,0,1-13.286,8.694l19.137,26.792Zm-25.7-29.963q12.248,0,18.7-5.412t6.451-15.365q0-9.949-6.451-15.365t-18.7-5.412h-21.87v41.554Z"
                style="fill:#56caf5" />
            <path
                d="M430.958,418.3a37.434,37.434,0,0,1-14.27-13.943,40.3,40.3,0,0,1,0-39.586,37.42,37.42,0,0,1,14.27-13.943,43.436,43.436,0,0,1,40.679-.055,37.09,37.09,0,0,1,14.271,13.888,40.735,40.735,0,0,1,0,39.805,37.055,37.055,0,0,1-14.271,13.888,43.432,43.432,0,0,1-40.679-.054Zm37.726-4.429a32.23,32.23,0,0,0,12.247-12.083,35.312,35.312,0,0,0,0-34.446,32.226,32.226,0,0,0-12.247-12.084,36.846,36.846,0,0,0-34.829,0,32.113,32.113,0,0,0-12.3,12.084,35.326,35.326,0,0,0,0,34.446,32.117,32.117,0,0,0,12.3,12.083,36.854,36.854,0,0,0,34.829,0Z"
                style="fill:#56caf5" />
            <path
                d="M517.838,414.96q-8.037-8.42-8.038-24.6v-44.07h5.578v43.851q0,14.106,6.451,21.105t18.7,7q12.138,0,18.591-7t6.452-21.105V346.286h5.577v44.07q0,16.185-8.092,24.6t-22.637,8.42Q525.875,423.38,517.838,414.96Z"
                style="fill:#56caf5" />
            <path d="M610.3,351.317H582.738v-5.031h60.691v5.031H615.873v71.517H610.3Z"
                style="fill:#56caf5" />
            <path
                d="M710.025,417.8v5.03H657.208V346.286h51.177v5.031h-45.6V381.5h40.79v4.92h-40.79V417.8Z"
                style="fill:#56caf5" />
            <path
                d="M469.247,172.552,368.963,9.461a17.583,17.583,0,0,0-15.122-8.394h-.21A17.575,17.575,0,0,0,338.5,9.8l-19.75,33.791L294.359,4.741a10.122,10.122,0,0,0-17.144,10.766L391.172,196.974l9.532,15.5A39.6,39.6,0,0,0,425.169,230.2a41.2,41.2,0,0,0,9.869,1.2,40.56,40.56,0,0,0,20.167-5.368,38.7,38.7,0,0,0,18.531-24.137A37.741,37.741,0,0,0,469.247,172.552Zm-15.126,24.331a18.617,18.617,0,0,1-8.963,11.573c-9.45,5.4-21.656,2.448-27.209-6.583l-3.279-5.333a10.261,10.261,0,0,0-.71-1.345l-5.592-8.9L331.684,61.581l22.2-37.988L452,183.156A17.658,17.658,0,0,1,454.121,196.883Z"
                style="fill:#56caf5" />
            <path
                d="M294.449,125c-.283-.527-.547-1.028-.8-1.5a44.413,44.413,0,0,0-2.561-4.456c-.065-.095-.132-.186-.2-.278L268.243,78.42a10.122,10.122,0,1,0-17.652,9.911l18.986,33.819c-.072.149-.14.293-.2.428l-29.949,49.813-.234.508a44.512,44.512,0,1,0,79.658-2.463Zm6.01,78.95a24.267,24.267,0,0,1-43.085-22.125l23.564-39.194,20.074,37.383A24.068,24.068,0,0,1,300.459,203.95Z"
                style="fill:#56caf5" />
        </g>
    </g>
</svg>

<?xml version="1.0" encoding="UTF-8" standalone="no"?>
<!DOCTYPE svg PUBLIC "-//W3C//DTD SVG 1.1//EN" "http://www.w3.org/Graphics/SVG/1.1/DTD/svg11.dtd">
<svg height="424.146pt" stroke-miterlimit="10" style="fill-rule:nonzero;clip-rule:evenodd;stroke-linecap:round;stroke-linejoin:round;" version="1.1" viewBox="0 0 710.025 424.146" width="710.025pt" xml:space="preserve" xmlns="http://www.w3.org/2000/svg" xmlns:xlink="http://www.w3.org/1999/xlink">
<defs/>
<g id="f98528ed-5b03-492f-9f5b-398e7e247038">
<g opacity="1">
<path d="M60.461 406.431L67.252 422.834L60.472 406.431L60.461 406.431Z" fill="#204294" fill-rule="nonzero" opacity="1" stroke="none"/>
<path d="M24.933 406.431L22.227 412.976L24.953 406.431L24.933 406.431Z" fill="#204294" fill-rule="nonzero" opacity="1" stroke="none"/>
<path d="M54.895 392.98L42.757 363.674L54.891 392.98L54.895 392.98Z" fill="#204294" fill-rule="nonzero" opacity="1" stroke="none"/>
<path d="M51.615 346.286L34.118 346.286L0 422.834L18.123 422.834L22.227 412.976L24.933 406.431L24.953 406.431L42.757 363.674L54.895 392.98L54.891 392.98L60.461 406.431L60.472 406.431L67.252 422.834L85.842 422.834L51.615 346.286Z" fill="#204294" fill-rule="nonzero" opacity="1" stroke="none"/>
<path d="M22.227 412.976L18.123 422.834L18.153 422.834L22.227 412.976Z" fill="#204294" fill-rule="nonzero" opacity="1" stroke="none"/>
<path d="M100.658 415.069C94.5713 409.019 91.5277 400.38 91.527 389.152L91.527 346.286L109.243 346.286L109.243 388.5C109.243 402.206 114.929 409.059 126.302 409.058C131.841 409.058 136.069 407.4 138.987 404.083C141.905 400.766 143.363 395.572 143.361 388.5L143.361 346.286L160.861 346.286L160.861 389.152C160.861 400.381 157.817 409.02 151.73 415.069C145.643 421.118 137.132 424.143 126.197 424.146C115.258 424.146 106.745 421.12 100.658 415.069Z" fill="#204294" fill-rule="nonzero" opacity="1" stroke="none"/>
<path d="M192.9 360.721L168.4 360.721L168.4 346.286L235.106 346.286L235.106 360.721L210.606 360.721L210.606 422.834L192.9 422.834L192.9 360.721Z" fill="#204294" fill-rule="nonzero" opacity="1" stroke="none"/>
<path d="M259.111 419.006C252.912 415.751 247.729 410.851 244.13 404.845C236.913 392.285 236.913 376.835 244.13 364.275C247.729 358.269 252.912 353.37 259.111 350.114C272.598 343.262 288.545 343.262 302.032 350.114C314.752 356.9 322.697 370.143 322.697 384.56C322.697 398.977 314.752 412.22 302.032 419.006C288.546 425.859 272.597 425.859 259.111 419.006ZM292.847 405.939C296.46 403.893 299.432 400.883 301.431 397.244C305.586 389.298 305.586 379.821 301.431 371.875C299.431 368.237 296.459 365.227 292.847 363.182C285.21 359.024 275.984 359.024 268.347 363.182C264.734 365.226 261.761 368.236 259.762 371.875C255.607 379.821 255.607 389.298 259.762 397.244C261.761 400.883 264.733 403.894 268.347 405.939C275.985 410.095 285.209 410.095 292.847 405.939Z" fill="#204294" fill-rule="nonzero" opacity="1" stroke="none"/>
<path d="M393.233 422.834L374.971 397.244C372.507 397.593 370.022 397.776 367.534 397.792L345.664 397.792L345.664 422.834L340.087 422.834L340.087 346.286L367.534 346.286C377.158 346.286 384.704 348.565 390.171 353.122C395.638 357.679 398.372 364.003 398.371 372.094C398.371 378.145 396.822 383.229 393.724 387.348C390.377 391.634 385.705 394.691 380.438 396.042L399.575 422.834L393.233 422.834ZM367.533 392.871C375.698 392.871 381.932 391.067 386.233 387.459C390.534 383.851 392.685 378.729 392.684 372.094C392.684 365.461 390.534 360.34 386.233 356.729C381.932 353.118 375.699 351.314 367.533 351.317L345.663 351.317L345.663 392.871L367.533 392.871Z" fill="#56caf5" fill-rule="nonzero" opacity="1" stroke="none"/>
<path d="M430.958 418.3C425.028 415.029 420.096 410.21 416.688 404.357C409.761 392.071 409.761 377.057 416.688 364.771C420.095 358.918 425.027 354.099 430.958 350.828C443.671 344.069 458.906 344.048 471.637 350.773C477.571 354.015 482.506 358.817 485.908 364.661C492.832 377.026 492.832 392.101 485.908 404.466C482.507 410.311 477.572 415.114 471.637 418.354C458.907 425.08 443.671 425.06 430.958 418.3ZM468.684 413.871C473.786 411.027 478.019 406.851 480.931 401.788C486.911 391.085 486.911 378.045 480.931 367.342C478.019 362.279 473.786 358.102 468.684 355.258C457.807 349.425 444.732 349.425 433.855 355.258C428.73 358.089 424.477 362.268 421.555 367.342C415.578 378.046 415.578 391.084 421.555 401.788C424.477 406.861 428.73 411.04 433.855 413.871C444.732 419.703 457.807 419.703 468.684 413.871Z" fill="#56caf5" fill-rule="nonzero" opacity="1" stroke="none"/>
<path d="M517.838 414.96C512.48 409.347 509.801 401.147 509.8 390.36L509.8 346.29L515.378 346.29L515.378 390.141C515.378 399.545 517.528 406.58 521.829 411.246C526.13 415.912 532.363 418.245 540.529 418.246C548.621 418.246 554.818 415.913 559.12 411.246C563.422 406.579 565.573 399.544 565.572 390.141L565.572 346.286L571.149 346.286L571.149 390.356C571.149 401.146 568.452 409.346 563.057 414.956C557.662 420.566 550.117 423.373 540.42 423.376C530.723 423.379 523.196 420.573 517.838 414.96Z" fill="#56caf5" fill-rule="nonzero" opacity="1" stroke="none"/>
<path d="M610.3 351.317L582.738 351.317L582.738 346.286L643.429 346.286L643.429 351.317L615.873 351.317L615.873 422.834L610.3 422.834L610.3 351.317Z" fill="#56caf5" fill-rule="nonzero" opacity="1" stroke="none"/>
<path d="M710.025 417.8L710.025 422.83L657.208 422.83L657.208 346.286L708.385 346.286L708.385 351.317L662.785 351.317L662.785 381.5L703.575 381.5L703.575 386.42L662.785 386.42L662.785 417.8L710.025 417.8Z" fill="#56caf5" fill-rule="nonzero" opacity="1" stroke="none"/>
<path d="M469.247 229.552L368.963 66.461C365.742 61.2059 360.004 58.0211 353.841 58.067L353.631 58.067C347.395 58.0875 341.637 61.4108 338.5 66.8L318.75 100.591L294.359 61.741C291.386 57.0068 285.138 55.5791 280.404 58.552C275.67 61.5249 274.242 67.7728 277.215 72.507L391.172 253.974L400.704 269.474C406.196 278.384 414.992 284.757 425.169 287.2C428.398 287.997 431.712 288.4 435.038 288.4C442.113 288.4 449.066 286.55 455.205 283.032C464.419 277.854 471.114 269.134 473.736 258.895C476.31 248.911 474.689 238.309 469.247 229.552ZM454.121 253.883C452.839 258.803 449.601 262.984 445.158 265.456C435.708 270.856 423.502 267.904 417.949 258.873L414.67 253.54C414.467 253.075 414.23 252.625 413.96 252.195L408.368 243.295L331.684 118.581L353.884 80.593L452 240.156C454.553 244.25 455.319 249.21 454.121 253.883Z" fill="#56caf5" fill-rule="nonzero" opacity="1" stroke="none"/>
<path d="M294.449 182C294.166 181.473 293.902 180.972 293.649 180.5C292.882 178.966 292.027 177.479 291.088 176.044C291.023 175.949 290.956 175.858 290.888 175.766L268.243 135.42C265.506 130.546 259.336 128.813 254.461 131.549C249.587 134.286 247.854 140.457 250.591 145.331L269.577 179.15C269.505 179.299 269.437 179.443 269.377 179.578L239.428 229.391L239.194 229.899C230.458 248.899 236.127 271.419 252.817 284.019C269.507 296.619 292.718 295.901 308.599 282.294C324.479 268.687 328.745 245.86 318.852 227.436L294.449 182ZM300.459 260.95C293.894 271.935 279.927 275.934 268.543 270.088C257.159 264.242 252.271 250.561 257.374 238.825L280.938 199.631L301.012 237.014C305.091 244.525 304.88 253.635 300.459 260.95Z" fill="#56caf5" fill-rule="nonzero" opacity="1" stroke="none"/>
</g>
</g>
</svg>
